icon-themes/sifr_svg/cmd/lc_usewizards.svg

<svg viewBox="0 0 24 24" xmlns="http://www.w3.org/2000/svg"><path d="m1 16v6h6v-6z" opacity=".35"/><path d="m7 1-2 3h-4l2.4511719 3-1.4511719 3 3-1 3 2v-3l3-1.4375-3-1.5625zm4 8-2 2 11 10 2-2zm-4 7v6h6v-6z" fill="#555753"/></svg>

<svg xmlns="http://www.w3.org/2000/svg" viewBox="0 0 24 24">
  <path
     style="opacity:0.35"
     d="M 1 16 L 1 22 L 7 22 L 7 16 L 1 16 z "
     />
  <path
     style="fill:#555753"
     d="M 7,1 5,4 H 1 L 3.4511719,7 2,10 5,9 8,11 V 8 L 11,6.5625 8,5 Z m 4,8 -2,2 11,10 2,-2 z m -4,7 v 6 h 6 v -6 z"
     />
</svg>
